X:1303
T:1303 The Nutting Girl
C:William Hathaway
I:Cheltenham April 4th 1907
Q:1/4=120
V:1
K:G
M:4/4
z3 BA| G B B d| d c c BA| G B c e| d3 B| c c A c| B B G B| d g g f| G3 z:|
| d|d g g f| e 2d 2c d d|d g g| e2 f e|d g g f| e d dc| A B c e|d2 B A| G B c e|
 d2 B A | G B B d|d c c 2B 2A |G B c e|d3 B| c c A c| B B G B|B A G  F| G3 z ||
